styles/emoji-one/1f51b.svg

<svg xmlns="http://www.w3.org/2000/svg" viewBox="0 0 64 64" enable-background="new 0 0 64 64"><g fill="#94989b"><path d="m64 16l-16-16v10h-32v-10l-16 16 16 16v-10h32v10z"/><path d="m20 64c-3.308 0-6-2.848-6-6.347v-9.308c0-3.498 2.692-6.346 6-6.346 3.307 0 6 2.848 6 6.346v9.308c0 3.499-2.693 6.347-6 6.347m0-18.617c-1.655 0-3 1.33-3 2.963v9.308c0 1.633 1.346 2.964 3 2.964 1.654 0 3-1.331 3-2.964v-9.308c0-1.633-1.346-2.963-3-2.963"/><path d="m33 49.704l5.848 14.296h3.152v-22h-3v14.3l-5.85-14.3h-3.15v22h3z"/><path d="m46 60h4v4h-4z"/><path d="m50 42h-4l.736 14h2.524z"/></g></svg>

<svg xmlns="http://www.w3.org/2000/svg" viewBox="0 0 64 64"><g fill="#94989b"><path d="M64 16L48 0v10H16V0L0 16l16 16V22h32v10zM20 64c-3.308 0-6-2.848-6-6.347v-9.308c0-3.498 2.692-6.346 6-6.346 3.307 0 6 2.848 6 6.346v9.308C26 61.152 23.307 64 20 64m0-18.617c-1.655 0-3 1.33-3 2.963v9.308c0 1.633 1.346 2.964 3 2.964s3-1.331 3-2.964v-9.308c0-1.633-1.346-2.963-3-2.963M33 49.704L38.848 64H42V42h-3v14.3L33.15 42H30v22h3zM46 60h4v4h-4zM50 42h-4l.736 14h2.524z"/></g></svg>
